X:393
%%etbk:tnset id:113,pos:2,rep:3x,ant:
%%etbk:tnset id:262,pos:2,rep:3x-Stop,ant:
%%etbk:tnset id:263,pos:11,rep:3x+A,ant:
%%etbk:wsite http://www.thesession.org/tunes/display/1560
%%etbk:pldat 2016-06-22T16:08,2016-06-21T16:04,2016-06-20T18:28,2016-06-18T16:19,2016-06-16T19:13,2016-03-05T15:32,2016-03-05T15:10,2016-02-27T15:13,2016-02-22T18:54,2015-06-26T17:41,2015-06-24T19:17,2015-06-23T18:45,2015-06-22T18:41,2015-06-18T19:17,2014-08-21T19:04,2014-08-20T19:21,2014-08-20T18:25,2014-06-25T15:51,2014-06-23T18:37,2014-06-13T15:43,2014-06-03T16:01,2014-06-02T19:23,2014-02-08T14:25,2013-11-18T18:00,2013-10-26T16:49,2013-10-16T16:43,2013-05-10T15:39
T: Memories Of Ballymote
Z: Piano Box Version by Martin Fleischmann
H: Created 2013-02-19 /  Last Modified 2013-02-19
M: 2/4
L: 1/8
R: polka
K: Gmaj
!5!d/c/|: "G"!3!B!2!G !1!D>!2!G | "C"!1!E!4!c c!2!A/B/ | "D"!4!c!1!E !2!F>!1!E | "D"!1!D!5!d d>c |
"G"!3!B!2!G !1!D>!2!G | "C"!1!E!4!c c!2!A/B/ | "D"!4!c/B/A/!1!G/ !3!F/!1!D/E/!3!F/ |1 "G"!1!G!3!B G!5!d/c/:|2 "G"!1!G!3!B G>!3!f||
|: "G"!4!g2 !3!f2 | "C"!1!c2-c2>d | "D"!3!e{f}e !2!d{e}d | "G"!1!B2-B2>!3!c |
"G"!4!d>e d!3!c | "D"!2!A2 AB/A/ |1 "G"!1!GA B!3!c | !5!d!1!d !2!e!3!f:|2 "G"!1!G!4!g "D"!3!f!5!a | "G"!4![g2d2] z!5!d/c/||


